svg/emoji_u1f602.svg

<svg xmlns="http://www.w3.org/2000/svg" xmlns:xlink="http://www.w3.org/1999/xlink" width="128" height="128"><defs><linearGradient gradientTransform="translate(-5.045 -5.53)" xlink:href="#a" id="b" x1="95.743" y1="70.878" x2="95.743" y2="82.469" gradientUnits="userSpaceOnUse"/><linearGradient id="a"><stop offset="0" stop-color="#fff"/><stop offset="1" stop-color="#fff" stop-opacity=".787"/></linearGradient></defs><path d="M63.89 9.64C1.58 9.64.1 79.5.1 93.33c0 13.83 28.56 25.03 63.79 25.03 35.24 0 63.79-11.21 63.79-25.03 0-13.83-1.47-83.69-63.79-83.69z" fill="#fcc21b"/><path d="M31.96 54.45a2.728 2.728 0 0 1-3.73.93 2.72 2.72 0 0 1-.96-3.71c.18-.31 4.6-7.62 14.37-7.62 9.78 0 14.2 7.31 14.39 7.62a2.735 2.735 0 0 1-2.36 4.11c-.92 0-1.83-.47-2.34-1.32-.13-.22-3.12-4.96-9.69-4.96-6.57-.01-9.54 4.74-9.68 4.95zM100 55.39c-.43.26-.91.38-1.37.38-.94 0-1.85-.49-2.36-1.34-.11-.2-3.08-4.94-9.66-4.94-6.69 0-9.66 4.89-9.69 4.94a2.724 2.724 0 0 1-4.69-2.77c.18-.31 4.6-7.62 14.38-7.62 9.77 0 14.18 7.31 14.36 7.62.76 1.3.32 2.97-.97 3.73z" fill="#2f2f2f"/><g fill="#fff"><path d="M106.57 79.41c-1.38-2.21-2.93-6.97-3.17-8.49-.41-2.61-1.5-7.34-2.3-11.3-.22-1.07-.2-2.56 1.15-2.63 1.08-.03 2.77.61 3.76.95 2.92 1 5.98 2.69 8.51 4.4 4.62 3.17 7.76 8.25 7.14 13.99-.47 4.24-4.45 7.04-8.05 6.87-2.6-.1-5.76-1.73-7.04-3.79zM21.43 79.41c1.38-2.21 2.93-6.97 3.17-8.49.41-2.61 1.5-7.34 2.3-11.3.22-1.07.2-2.56-1.15-2.63-1.08-.03-2.77.61-3.76.95-2.92 1-5.98 2.69-8.51 4.4-4.62 3.17-7.76 8.25-7.14 13.99.47 4.24 4.45 7.04 8.05 6.87 2.6-.1 5.76-1.73 7.04-3.79z"/></g><path d="M96.462 63.959c-3.09-2.09-6.98-.71-10.42 0-9.58 1.98-18 2.06-22.04 2.06-4.04 0-12.46-.08-22.04-2.06-3.44-.71-7.33-2.09-10.42 0-3.92 2.65-1.03 12.15 5.14 18.57 3.73 3.88 12.61 11.41 27.32 11.41s23.59-7.53 27.32-11.41c6.17-6.42 9.05-15.92 5.14-18.57z" fill="#ec6c31" stroke-width="5"/><path d="M30.308 65.349c-.955.01-1.712.21-2.41.681h-.002c-.288.195-.522.5-.64 1.379-.12.88-.003 2.216.431 3.732.117.41.26.832.42 1.262a44.377 16.047 0 0 0 30.848 4.535 44.377 16.047 0 0 0 30.838-4.51c.163-.438.31-.868.43-1.285.433-1.516.55-2.854.43-3.734-.117-.878-.351-1.185-.636-1.379-.93-.629-1.968-.775-3.44-.633-1.47.142-3.223.628-5.074 1.01-9.85 2.036-18.473 2.111-22.546 2.111s-12.694-.075-22.545-2.11c-1.852-.383-3.605-.869-5.076-1.01a9.628 9.628 0 0 0-1.028-.05z" fill="url(#b)" stroke-width=".78" stroke-linejoin="round" transform="translate(5.045)"/></svg>

<?xml version="1.0" encoding="UTF-8" standalone="no"?>
<!DOCTYPE svg PUBLIC "-//W3C//DTD SVG 1.1//EN" "http://www.w3.org/Graphics/SVG/1.1/DTD/svg11.dtd">
<svg width="100%" height="100%" viewBox="0 0 128 128" version="1.1" xmlns="http://www.w3.org/2000/svg" xmlns:xlink="http://www.w3.org/1999/xlink" xml:space="preserve" xmlns:serif="http://www.serif.com/" style="fill-rule:evenodd;clip-rule:evenodd;stroke-linejoin:round;stroke-miterlimit:2;">
    <path d="M63.89,9.64C1.58,9.64 0.1,79.5 0.1,93.33C0.1,107.16 28.66,118.36 63.89,118.36C99.13,118.36 127.68,107.15 127.68,93.33C127.68,79.5 126.21,9.64 63.89,9.64Z" style="fill:rgb(252,188,3);fill-rule:nonzero;"/>
    <path d="M31.96,54.45C31.188,55.724 29.509,56.142 28.23,55.38C26.954,54.622 26.522,52.952 27.27,51.67C27.45,51.36 31.87,44.05 41.64,44.05C51.42,44.05 55.84,51.36 56.03,51.67C56.273,52.088 56.401,52.562 56.401,53.045C56.401,54.544 55.169,55.778 53.67,55.78C52.75,55.78 51.84,55.31 51.33,54.46C51.2,54.24 48.21,49.5 41.64,49.5C35.07,49.49 32.1,54.24 31.96,54.45ZM100,55.39C99.57,55.65 99.09,55.77 98.63,55.77C97.69,55.77 96.78,55.28 96.27,54.43C96.16,54.23 93.19,49.49 86.61,49.49C79.92,49.49 76.95,54.38 76.92,54.43C76.424,55.232 75.546,55.722 74.603,55.722C73.108,55.722 71.879,54.493 71.879,52.998C71.879,52.529 72,52.068 72.23,51.66C72.41,51.35 76.83,44.04 86.61,44.04C96.38,44.04 100.79,51.35 100.97,51.66C101.73,52.96 101.29,54.63 100,55.39Z" style="fill:rgb(47,47,47);fill-rule:nonzero;"/>
    <g>
        <path d="M106.57,79.41C105.19,77.2 103.64,72.44 103.4,70.92C102.99,68.31 101.9,63.58 101.1,59.62C100.88,58.55 100.9,57.06 102.25,56.99C103.33,56.96 105.02,57.6 106.01,57.94C108.93,58.94 111.99,60.63 114.52,62.34C119.14,65.51 122.28,70.59 121.66,76.33C121.19,80.57 117.21,83.37 113.61,83.2C111.01,83.1 107.85,81.47 106.57,79.41ZM21.43,79.41C22.81,77.2 24.36,72.44 24.6,70.92C25.01,68.31 26.1,63.58 26.9,59.62C27.12,58.55 27.1,57.06 25.75,56.99C24.67,56.96 22.98,57.6 21.99,57.94C19.07,58.94 16.01,60.63 13.48,62.34C8.86,65.51 5.72,70.59 6.34,76.33C6.81,80.57 10.79,83.37 14.39,83.2C16.99,83.1 20.15,81.47 21.43,79.41Z" style="fill:white;fill-rule:nonzero;"/>
    </g>
    <g transform="matrix(0.912168,0,0,0.912168,5.62125,5.52039)">
        <path d="M96.462,63.959C93.372,61.869 89.482,63.249 86.042,63.959C76.462,65.939 68.042,66.019 64.002,66.019C59.962,66.019 51.542,65.939 41.962,63.959C38.522,63.249 34.632,61.869 31.542,63.959C27.622,66.609 30.512,76.109 36.682,82.529C40.412,86.409 49.292,93.939 64.002,93.939C78.712,93.939 87.592,86.409 91.322,82.529C97.492,76.109 100.372,66.609 96.462,63.959Z" style="fill:rgb(236,108,49);fill-rule:nonzero;"/>
    </g>
</svg>
